!!!OTL: I LOVE...
**kern	**kern	**kern	**kern	**kern
*part5	*part4	*part3	*part2	*part1
*staff5	*staff4	*staff3	*staff2	*staff1
*I"Violoncello	*I"Viola	*I"Violin II	*I"Violin I	*I"Melody
*	*	*	*	*I'Melody
*clefF4	*clefC3	*clefG2	*clefG2	*clefG2
*k[f#c#g#]	*k[f#c#g#]	*k[f#c#g#]	*k[f#c#g#]	*k[f#c#g#]
*M4/4	*M4/4	*M4/4	*M4/4	*M4/4
*MM86	*MM86	*MM86	*MM86	*MM86
=1	=1	=1	=1	=1
4D' 4A	8f#L	8cc#L	8aaL	1r
.	16eL	16bL	16gg#L	.
.	16f#JJ	16cc#JJ	16aaJJ	.
4r	16r	16r	16r	.
.	8e'L	8b'L	8gg#'L	.
.	16f#Jk	16cc#Jk	16aaJk	.
4r	16r	16r	16r	.
.	16e	16b	16gg#	.
.	4.f#'	4.cc#'	4.aa'	.
8r	.	.	.	.
16FF#LL	.	.	.	.
16FF#JJ	.	.	.	.
=2	=2	=2	=2	=2
4C#' 4G#	8eL	8cc#L	8aaL	1r
.	16eL	16bL	16gg#L	.
.	16f#JJ	16cc#JJ	16aaJJ	.
4r	16r	16r	16r	.
.	8e'L	8b'L	8gg#'L	.
.	16f#Jk	16cc#Jk	16aaJk	.
4r	16r	16r	16r	.
.	16e	16b	16gg#	.
.	4.f#'	4.cc#'	4.aa'	.
8r	.	.	.	.
16FF#LL	.	.	.	.
16AAJJ	.	.	.	.
=3	=3	=3	=3	=3
4BB' 4F#	8f#L	8cc#L	8aaL	1r
.	16eL	16bL	16gg#L	.
.	16f#JJ	16cc#JJ	16aaJJ	.
4r	16r	16r	16r	.
.	8e'L	8b'L	8gg#'L	.
.	16f#Jk	16cc#Jk	16aaJk	.
4r	16r	16r	16r	.
.	16eKL	16bKL	16gg#KL	.
.	8f#J	8cc#J	8aaJ	.
8r	8r	8r	8r	.
16BBLL	32eLLL	32eeLLL	32eeLLL	.
.	32f#	32ff#	32ff#	.
16BBJJ	32g#	32gg#	32gg#	.
.	32aJJJ	32aaJJJ	32aaJJJ	.
=4	=4	=4	=4	=4
8.FF#L	8.aL	8.eeL	8.bbL	1r
[16GG#Jk	[16eJk	[16bJk	[16eeJk	.
8GG#L]	8eL]	8bL]	8eeL]	.
8AAJ	8aJ	8cc#J	8ccc#J	.
16r	16r	16r	16r	.
16AALL	16aLL	16eeLL	16eeeLL	.
16BB	16b	16dd	16ddd	.
16C#JJ	16cc#JJ	16cc#JJ	16ccc#JJ	.
16r	16r	16r	16r	.
8.EE-X	8.c#	8.ffn	8.bb	.
=5	=5	=5	=5	=5
4DD' 4AA	8f#L	8cc#L	8aaL	1r
.	16eL	16bL	16gg#L	.
.	16f#JJ	16cc#JJ	16aaJJ	.
4r	16r	16r	16r	.
.	8e'L	8b'L	8gg#'L	.
.	16f#Jk	16cc#Jk	16aaJk	.
8r	16r	16r	16r	.
.	16e	16b	16gg#	.
8DL 8A	4.f#'	4.cc#'	4.aa'	.
8D 8A	.	.	.	.
8DJ 8A	.	.	.	.
=6	=6	=6	=6	=6
4C#' 4G#	8eL	8cc#L	8aaL	1r
.	16eL	16bL	16gg#L	.
.	16f#JJ	16cc#JJ	16aaJJ	.
4r	16r	16r	16r	.
.	8e'L	8b'L	8gg#'L	.
.	16f#Jk	16cc#Jk	16aaJk	.
8r	16r	16r	16r	.
.	16e	16b	16gg#	.
8C#L 8G#	4.f#'	4.cc#'	4.aa'	.
8C# 8G#	.	.	.	.
8CnJ 8Gn	.	.	.	.
=7	=7	=7	=7	=7
4BB' 4F#	8f#L	8cc#L	8aaL	1r
.	16eL	16bL	16gg#L	.
.	16f#JJ	16cc#JJ	16aaJJ	.
4r	16r	16r	16r	.
.	8e'L	8b'L	8gg#'L	.
.	16f#Jk	16cc#Jk	16aaJk	.
8r	16r	16r	16r	.
.	16eKL	16bKL	16gg#KL	.
8BBL	8f#J	8cc#J	8aaJ	.
8EE	8r	8r	8r	.
8EE#XJ	32eLLL	32eeLLL	32eeLLL	.
.	32f#	32ff#	32ff#	.
.	32g#	32gg#	32gg#	.
.	32aJJJ	32aaJJJ	32aaJJJ	.
=8	=8	=8	=8	=8
8.FF#L	8.aL	8.eeL	8.bbL	1r
[16GG#Jk	[16eJk	[16bJk	[16eeJk	.
8GG#L]	8eL]	8bL]	8eeL]	.
8AAJ	8aJ	8cc#J	8ccc#J	.
16r	16r	16r	16r	.
16AALL	16aLL	16eeLL	16eeeLL	.
16BB	16b	16dd	16ddd	.
16C#JJ	16cc#JJ	16cc#JJ	16ccc#JJ	.
16r	16r	16r	16r	.
8.EE-X	8.c#	8.ee#X	8.bb	.
=9	=9	=9	=9	=9
4DD'	4A'	4ff#'	4r	4r
4r	4r	4r	8ff#'L	8f#'L
.	.	.	8eeJ	8eJ
4C#'	4E#X'	4g#'	8r	8r
.	.	.	16r	16r
.	.	.	16a	16A
4r	4r	4r	16ddLL	16dLL
.	.	.	16ddJ	16dJ
.	.	.	8cc#J	8c#J
=10	=10	=10	=10	=10
4FF#'	4F#'	4a'	8r	8r
.	.	.	16r	16r
.	.	.	16b	16B
4r	4r	4r	16bLL	16BLL
.	.	.	16aJ	16AJ
.	.	.	8cc#J	8c#J
4EE	4E	4gn	16r	16r
.	.	.	16aLL	16ALL
.	.	.	16a	16A
.	.	.	[16bJJ	[16BJJ
8.AAL	8.EL	8.gL	16bLL]	16BLL]
.	.	.	16aJ	16AJ
.	.	.	8aJ	8AJ
16DDJk	16DJk	16f#Jk	.	.
=11	=11	=11	=11	=11
4r	2r	2r	8r	8r
.	.	.	16r	16r
.	.	.	16e	16E
8r	.	.	16eLL	16ELL
.	.	.	16eJ	16EJ
16r	.	.	8eeJ	8eJ
16CCn	.	.	.	.
4CC#X'	4E#X'	4g#'	8dd'L	8d'L
.	.	.	16cc#L	16c#L
.	.	.	16bJJ	16BJJ
4r	4r	4r	8.cc#'L	8.c#'L
.	.	.	16f#Jk	16F#Jk
=12	=12	=12	=12	=12
4FF#'	4F#'	4a'	8cc#L	8c#L
.	.	.	16bL	16BL
.	.	.	[16cc#JJ	[16c#JJ
4r	4r	4r	8cc#L]	8c#L]
.	.	.	16ff#L	16f#L
.	.	.	[16eeJJ	[16eJJ
8.EEL	4D	4f#	8eeL]	8eL]
.	.	.	16ff#L	16f#L
32BBLL	.	.	[16eeJJ	[16eJJ
32EEJJJ	.	.	.	.
8.AAL	4D	4f#	16eeLL]	16eLL]
.	.	.	16ddJ	16dJ
.	.	.	8cc#J	8c#J
16EEJk	.	.	.	.
=13	=13	=13	=13	=13
4DD'	4C#'	4f#'	8r	8r
.	.	.	16r	16r
.	.	.	[16ff#	[16f#
8r	4r	4r	16ff#LL]	16f#LL]
.	.	.	16gg#J	16g#J
16r	.	.	8eeJ	8eJ
16D	.	.	.	.
4C#'	4E#X'	4g#'	8r	8r
.	.	.	16aLL	16ALL
.	.	.	[16ddJJ	[16dJJ
8r	4r	4r	16ddLL]	16dLL]
.	.	.	16eeJ	16eJ
16r	.	.	8cc#J	8c#J
32EELLL	.	.	.	.
32EE#XJJJ	.	.	.	.
=14	=14	=14	=14	=14
4FF#'	4C#'	4a'	8r	8r
.	.	.	16r	16r
.	.	.	16a	16A
4r	4r	4r	16aLL	16ALL
.	.	.	16bJ	16BJ
.	.	.	8cc#J	8c#J
4EE	4E	4gn	16bLL	16BLL
.	.	.	16a	16A
.	.	.	16f#	16F#
.	.	.	[16aJJ	[16AJJ
8AAL	8.EL	8.gL	16aLL]	16ALL]
.	.	.	16bJ	16BJ
16EEL	.	.	8cc#J	8c#J
16DDJJ	16DJk	16f#Jk	.	.
=15	=15	=15	=15	=15
4r	2r	2r	8r	8r
.	.	.	16r	16r
.	.	.	16ee	16e
8r	.	.	16eeLL	16eLL
.	.	.	16eeJ	16eJ
16r	.	.	8ff#J	8f#J
16DD	.	.	.	.
4CC#'	4E#X' 4B	4G#' 4d	8eeL	8eL
.	.	.	16ddL	16dL
.	.	.	16cc#JJ	16c#JJ
8r	4r	4r	8.b'L	8.B'L
16r	.	.	.	.
16EE	.	.	16aJk	16AJk
=16	=16	=16	=16	=16
4FF#'	4A'	4c#'	8cc#L	8c#L
.	.	.	16bL	16BL
.	.	.	[16cc#JJ	[16c#JJ
8r	4r	4r	8cc#L]	8c#L]
16r	.	.	16ff#L	16f#L
16FF#	.	.	[16eeJJ	[16eJJ
8EEL	4B	4d	8eeL]	8eL]
16BBL	.	.	16ff#L	16f#L
16AAJJ	.	.	[16eeJJ	[16eJJ
8AAL	4B	4d	16eeLL]	16eLL]
.	.	.	16cc#J	16c#J
24BBL	.	.	8aJ	8AJ
24C#	.	.	.	.
24EEJJ	.	.	.	.
=17	=17	=17	=17	=17
4DD'	4F#'	4r	4r	4r
16DLL	4r	8dL	8ff#L	8f#L
16C#	.	.	.	.
16BB	.	8c#J	8eeJ	8eJ
16AAJJ	.	.	.	.
4CC#'	4E#X'	4r	4r	4r
4r	4r	8BL	8ddL	8dL
.	.	8AJ	8cc#J	8c#J
=18	=18	=18	=18	=18
4FF#'	4A'	4c#'	4r	4r
8r	4r	4r	8eeL	8eL
16FF#LL	.	.	16ddL	16dL
16EE#XJJ	.	.	16cc#JJ	16c#JJ
8.EEnL	4E	4A	8bL	8BL
.	.	.	16aL	16AL
32BBLL	.	.	[16eJJ	[16EJJ
32EEJJJ	.	.	.	.
8AAL	4E	4A	16eLL]	16ELL]
.	.	.	16eJ	16EJ
8EEJ	.	.	8aJ	8AJ
=19	=19	=19	=19	=19
4DD'	4F#'	4d'	4r	4r
16DLL	4r	8dL	8ff#L	8f#L
16C#	.	.	.	.
16BB	.	8c#J	8eeJ	8eJ
16AAJJ	.	.	.	.
4CC#'	4E#X'	4r	4r	4r
8r	4r	8BL	8ddL	8dL
8C#	.	8AJ	8cc#J	8c#J
=20	=20	=20	=20	=20
*M2/4	*M2/4	*M2/4	*M2/4	*M2/4
4BB	4F#	4c#	8r	8r
.	.	.	16r	16r
.	.	.	[16dd	[16d
4EE	4A	4d	8ddL]	8dL]
.	.	.	16cc#L	16c#L
.	.	.	16cc#JJ	16c#JJ
=21	=21	=21	=21	=21
*M4/4	*M4/4	*M4/4	*M4/4	*M4/4
1AA	4B	8c#L	1cc#	1c#
.	.	8aJ	.	.
.	8eL	[4a	.	.
.	8AJ	.	.	.
*^	*	*	*	*
.	[2E	8B	8aL]	.	.
.	.	4E	8A	.	.
.	.	.	8B	.	.
.	.	8E	8AJ	.	.
=22	=22	=22	=22	=22	=22
1AA	1E]	8E	8B	4r	4r
.	.	4E	4B	.	.
.	.	.	.	8r	8r
.	.	8E	8A	8a	8A
.	.	8e	8BL	8aL	8AL
.	.	4.e	8A	8g#	8G#
.	.	.	8B	8a	8A
.	.	.	8AJ	[8bbJ	[8bJ
*v	*v	*	*	*	*
=23	=23	=23	=23	=23
1DD	8c#L	8f#L	8bbL]	8bL]
.	16c#L	16f#L	16aaL	16aL
.	16c#JJ	16f#JJ	16ff#JJ	16f#JJ
.	8.c#'L	8.f#'L	8.aa'L	8.a'L
.	16c#Jk	16f#Jk	16ff#Jk	16f#Jk
.	8c#L	8f#L	8ff#L	8f#L
.	8c#	8f#	8ee	8e
.	8c#	8f#	8ff#	8f#
.	[8eJ	[8g#J	[8aaJ	[8aJ
=24	=24	=24	=24	=24
4EE	8eL]	8g#L]	8aaL]	8aL]
.	16eL	16g#L	16gg#L	16g#L
.	16eJJ	16g#JJ	16ff#JJ	16f#JJ
8.G#L	2B	2g#	[4ee	[4e
16EJk	.	.	.	.
8.C#L	.	.	4ee]	4e]
16GG#Jk	.	.	.	.
4EE	8r	8r	8r	8r
.	8G#	8B	16cc#LL	16c#LL
.	.	.	16ddJJ	16dJJ
=25	=25	=25	=25	=25
2CC#	8.G#'L	8.c#'L	8.ee'L	8.e'L
.	[16G#Jk	[16c#Jk	[16eeJk	[16eJk
.	8G#L]	8c#L]	8eeL]	8eL]
.	16G#L	16c#L	16eeL	16eL
.	[16G#JJ	[16dJJ	[16ffnJJ	[16f#JJ
2EE#X	8G#L]	8dL]	8ffL]	8f#L]
.	16G#L	16c#L	16ffL	16f#L
.	[16G#JJ	[16c#JJ	[16ff#XJJ	[16f#JJ
.	8G#L]	8c#L]	8ff#L]	8f#L]
.	16BL	16eL	16gg#L	16g#L
.	[16BJJ	[16eJJ	[16gg#JJ	[16g#JJ
=26	=26	=26	=26	=26
2FF#	8BL]	8eL]	8gg#L]	8g#L]
.	16c#L	16eL	16aaL	16aL
.	[16c#JJ	[16eJJ	[16aaJJ	[16aJJ
.	4c#]	4e]	4aa]	4a]
4F#	2r	2r	8r	8r
.	.	.	8aL	8AL
4FF#	.	.	8b	8B
.	.	.	[8cc#J	[8c#J
=27	=27	=27	=27	=27
1BB 1F#	1d	1a	8.cc#L]	8.c#L]
.	.	.	[16cc#Jk	[16c#Jk
.	.	.	8cc#L]	8c#L]
.	.	.	16bL	16BL
.	.	.	[16eeJJ	[16eJJ
.	.	.	8eeL]	8eL]
.	.	.	16ddL	16dL
.	.	.	[16cc#JJ	[16c#JJ
.	.	.	8cc#L]	8c#L]
.	.	.	16bL	16BL
.	.	.	16bJJ	16BJJ
=28	=28	=28	=28	=28
[2EE	4f#	4d	8cc#L	8c#L
.	.	.	16bL	16BL
.	.	.	[16cc#JJ	[16c#JJ
.	8f#L	8dL	16cc#]	16c#]
.	.	.	16r	16r
.	16eL	16c#L	16cc#LL	16c#LL
.	[16f#JJ	[16dJJ	16bJJ	16BJJ
4EE]	2f#]	2d]	8cc#L	8c#L
.	.	.	16cc#L	16c#L
.	.	.	16ddJJ	16dJJ
8.EEL	.	.	8eeL	8eL
.	.	.	8bbJ	8bJ
16GG#Jk	.	.	.	.
=29	=29	=29	=29	=29
1AA	4A	4c#	8.aaL	8.aL
.	.	.	16cc#Jk	16c#Jk
.	8.G#L	8.BL	4cc#	4c#
.	16AJk	16c#Jk	.	.
.	2A	2c#	4r	4r
.	.	.	8eeL	8eL
.	.	.	[8ccc#J	[8cc#J
=30	=30	=30	=30	=30
2AA	8.G#L	8.BL	8ccc#L]	8cc#L]
.	.	.	16bbL	16bL
.	[16AJk	[16c#Jk	[16bbJJ	[16bJJ
.	8AL]	8c#L]	8bb']	8b']
.	[8c#J	[8eJ	16r	16r
.	.	.	16aa	16a
4A	8c#L]	8eL]	8aaL	8aL
.	8c#	8gn	8gg#	8g#
4AA	8c#	8g	8aa	8a
.	8c#J	8gJ	[8bbJ	[8bJ
=31	=31	=31	=31	=31
8.DDL	8c#L	8f#L	8bbL]	8bL]
.	16c#L	16f#L	16aaL	16aL
16DJk	16c#JJ	16f#JJ	16ff#JJ	16f#JJ
8r	8.c#'L	8.f#'L	8.aa'L	8.a'L
8DD	.	.	.	.
.	16c#Jk	16eJk	16ff#Jk	16f#Jk
8r	8c#L	8eL	8ff#L	8f#L
8DD	8c#	8e	8ee	8e
16r	8c#	8e	8ff#	8f#
8.DD	.	.	.	.
.	[8eJ	[8g#J	[8aaJ	[8aJ
=32	=32	=32	=32	=32
8.EEL	8eL]	8g#L]	8aaL]	8aL]
.	16eL	16g#L	16gg#L	16g#L
16EEJk	16eJJ	16g#JJ	16ff#JJ	16f#JJ
8r	2B	2g#	[4ee	[4e
8EE	.	.	.	.
8r	.	.	4ee]	4e]
8EE	.	.	.	.
16r	8r	8r	8r	8r
8.EE	.	.	.	.
.	8B	8e	8ee	8e
=33	=33	=33	=33	=33
4C#	8BL	8eL	8bbL	8bL
.	16BL	16eL	16ccc#L	16cc#L
.	[16BJJ	[16eJJ	[16eeJJ	[16eJJ
8r	8BL]	8eL]	8eeL]	8eL]
8C#	16c#L	16eL	16eeL	16eL
.	16c#JJ	16eJJ	16eeJJ	16eJJ
8r	8c#L	8e#XL	8bbL	8bL
8EE#X	16c#L	16e#L	16ccc#L	16cc#L
.	[16c#JJ	[16e#JJ	[16ee#XJJ	[16eJJ
16r	8c#L]	8e#L]	8ee#L]	8eL]
8.EE#	.	.	.	.
.	8e#X'J	8g#'J	8ee#'J	8e'J
=34	=34	=34	=34	=34
4FF#	8c#L	8f#L	8bbL	8bL
.	16c#L	16f#L	16ccc#L	16cc#L
.	[16c#JJ	[16f#JJ	[16ccc#JJ	[16cc#JJ
8r	4c#]	4f#]	4ccc#]	4cc#]
8FF#	.	.	.	.
8r	8r	8r	8r	8r
8FF#	8c#	8f#	8eeL	8eL
16r	16r	16r	8ee	8e
8.FF#	8.c#	8.f#	.	.
.	.	.	8eeJ	8eJ
=35	=35	=35	=35	=35
4BB	4d	4f#	8eeL	8eL
.	.	.	16ddL	16dL
.	.	.	[16cc#JJ	[16c#JJ
8r	8r	8r	8cc#L]	8c#L]
8BB	8d	8f#	16ddL	16dL
.	.	.	[16aaJJ	[16aJJ
8r	8r	8r	16aa]	16a]
.	.	.	16r	16r
8BB	8d	8f#	8dd	8d
16r	16r	16r	8ddL	8dL
8.BB	8.d	8.f#	.	.
.	.	.	8eeJ	8eJ
=36	=36	=36	=36	=36
4C#	4B	4e	8ddL	8dL
.	.	.	16cc#L	16c#L
.	.	.	[16bJJ	[16BJJ
8r	8r	8r	8bL]	8BL]
8C#	8B	8e	8aJ	8AJ
8r	8r	8r	8cc#L	8c#L
8CC#	8B	8e	16ddL	16dL
.	.	.	[16eeJJ	[16eJJ
16r	16r	16r	8eeL]	8eL]
8.CC#	8.B	8.e	.	.
.	.	.	16aL	16AL
.	.	.	[16aaJJ	[16aJJ
=37	=37	=37	=37	=37
4DD 4AA	4cn	4fn	4aa]	4a]
8r	8r	8r	8r	8r
8DD	8c	8f	8gg#	8g#
8r	8r	8r	4aa	4a
8DD	8c	8f	.	.
16r	16r	16r	16r	16r
8.DD	8.c	8.f	16ff#LL	16f#LL
.	.	.	16ff#	16f#
.	.	.	16gg#JJ	16g#JJ
=38	=38	=38	=38	=38
4EE	4B	4e	8aaL	8aL
.	.	.	16aaL	16aL
.	.	.	16aaJJ	16aJJ
8r	8r	8r	8r	8r
8EE	8f#	8cc#	8aa	8a
8r	8.f#L	8.cc#L	8.aaL	8.aL
8EE	.	.	.	.
.	[16eJk	[16bJk	[16gg#Jk	[16g#Jk
16r	8eL]	8bL]	8gg#L]	8g#L]
8.EE	.	.	.	.
.	16f#L	16cc#L	16aaL	16aL
.	[16f#JJ	[16cc#JJ	[16aaJJ	[16aJJ
=39	=39	=39	=39	=39
[2.DD	2.f#_	2.cc#_	1aa]	1a]
16DDLL]	8f#L]	8cc#L]	.	.
16E	.	.	.	.
16D	16eL	16bL	.	.
16C#JJ	16f#JJ	16cc#JJ	.	.
=40	=40	=40	=40	=40
1CC#	1e	1b	1aa	1r
=41	=41	=41	=41	=41
1DD	1B	1e	1b	1r
=42	=42	=42	=42	=42
1FF#	1c#	2f#	2a	1r
.	.	2e	2g#	.
=43	=43	=43	=43	=43
2D	2A	2f#	4r	4r
.	.	.	8aL	8AL
.	.	.	8a'J	8A'J
2E	2G#	2e	8.ee'L	8.e'L
.	.	.	16ddJk	16dJk
.	.	.	8cc#L	8c#L
.	.	.	16bL	16BL
.	.	.	16aJJ	16AJJ
=44	=44	=44	=44	=44
4..A	2G#	2B	16g#LL	16G#LL
.	.	.	16aJ	16AJ
.	.	.	8bJ	8BJ
.	.	.	8r	8r
.	.	.	16f#LL	16F#LL
16F#	.	.	16g#JJ	16G#JJ
2F#	2A	2B	8aL	8AL
.	.	.	8e	8E
.	.	.	8a	8A
.	.	.	8cc#J	8c#J
=45	=45	=45	=45	=45
2D	2c#	2f#	8r	8r
.	.	.	8aL	8AL
.	.	.	8b	8B
.	.	.	[8eeJ	[8eJ
2C#	2B	2e#X	8eeL]	8eL]
.	.	.	16ddL	16dL
.	.	.	16cc#JJ	16c#JJ
.	.	.	8bL	8BL
.	.	.	8aJ	8AJ
=46	=46	=46	=46	=46
8.FF#L	8.G#L	8.enL	16g#LL	16G#LL
.	.	.	16aJ	16AJ
.	.	.	8aJ	8AJ
[16F#Jk	[16AJk	[16eJk	.	.
8F#L]	4A]	4e]	8r	8r
8FF#J	.	.	8f#	8F#
8.EEL	8.g#L	8.eeL	8.gg#L	8.g#L
[16EEJk	[16aJk	[16eeJk	[16aaJk	[16aJk
8.EEL]	8aL]	8eeL]	8aaL]	8aL]
.	8bJ	8eeJ	8bbJ	8bJ
32BBLL	.	.	.	.
32C#JJJ	.	.	.	.
=47	=47	=47	=47	=47
4.D#X	8.cc#L	2ff#	8.ccc#L	8.cc#L
.	16aJk	.	16ff#Jk	16f#Jk
.	4a	.	4ff#	4f#
16ALL	.	.	.	.
16D#JJ	.	.	.	.
4.Dn	2a	2ffn	8r	8r
.	.	.	8cccnL	8cc#L
.	.	.	8bb	8b
16AALL	.	.	8aaJ	8aJ
16DJJ	.	.	.	.
=48	=48	=48	=48	=48
2C#	8.bL	2ee	8.bbL	8.bL
.	16g#Jk	.	16eeJk	16eJk
.	8.g#L	.	8.eeL	8.eL
.	16g#Jk	.	16eeJk	16eJk
4Cn	[4a	2ee	4aa	4a
8.CL	8aL]	.	8r	8r
.	16gnL	.	16ggnLL	16g#LL
32DLL	16fnJJ	.	16ffnJJ	16f#JJ
32CJJJ	.	.	.	.
=49	=49	=49	=49	=49
[2BB	16eKL	16aKL	4ee	4e
.	8e	8a	.	.
.	16eJk	16aJk	.	.
.	16eKL	16aKL	8r	8r
.	[8.eJ	[8.aJ	.	.
.	.	.	8dd'	8d'
4BB_	16eLL]	16aLL]	8eeL	8eL
.	16f#	16a	.	.
.	16f#	16a	16ddL	16dL
.	16f#JJ	16aJJ	[16aJJ	[16AJJ
8BBL_	4f#	4a	8aL]	8AL]
24BBL]	.	.	16ddL	16dL
24AA	.	.	.	.
.	.	.	16ddJJ	16dJJ
24GGnJJ	.	.	.	.
=50	=50	=50	=50	=50
4E	1A	1b	8eeL	8eL
.	.	.	16ddL	16dL
.	.	.	[16eeJJ	[16eJJ
2.EE	.	.	8eeL]	8eL]
.	.	.	16ddL	16dL
.	.	.	[16eeJJ	[16eJJ
.	.	.	8eeL]	8eL]
.	.	.	16ddL	16dL
.	.	.	[16cc#JJ	[16c#JJ
.	.	.	16cc#LL]	16c#LL]
.	.	.	16bJ	16BJ
.	.	.	8aJ	8AJ
=51	=51	=51	=51	=51
8DD'L	8A'L	8f#'L	4r	4r
8DD'J	8A'J	8f#'J	.	.
16r	16r	16r	8ff#L	8f#L
8.DD	8.A	8.f#	.	.
.	.	.	8eeJ	8eJ
4CC#'	4B'	4e'	4r	4r
4r	4r	4r	8ddL	8dL
.	.	.	8cc#J	8c#J
=52	=52	=52	=52	=52
8FF#'L	8A'L	8e'L	8r	8r
8FF#'J	8A'J	8e'J	16r	16r
.	.	.	16f#	16F#
16r	16r	16r	8ee'L	8e'L
8.FF#	8.A	8.e	.	.
.	.	.	16ddL	16dL
.	.	.	16cc#JJ	16c#JJ
4E	4Gn	4d	8bL	8BL
.	.	.	16aL	16AL
.	.	.	[16eJJ	[16EJJ
4AA	4G	4d	16eLL]	16ELL]
.	.	.	16eJ	16EJ
.	.	.	8aJ	8AJ
=53	=53	=53	=53	=53
8D'L	8F#'L	8c#'L	4r	4r
8D'J	8F#'J	8c#'J	.	.
16r	16r	16r	8ff#L	8f#L
8.D	8.F#	8.c#	.	.
.	.	.	8eeJ	8eJ
4C#'	4E#X'	4d'	4r	4r
4r	4r	4r	8ddL	8dL
.	.	.	8cc#J	8c#J
=54	=54	=54	=54	=54
8F#'L	8A'L	8e'L	8r	8r
8F#'J	8A'J	8e'J	16r	16r
.	.	.	16a	16A
16r	16r	16r	8eeL	8eL
8.F#	8.A	8.e	.	.
.	.	.	16ddL	16dL
.	.	.	16cc#JJ	16c#JJ
4E	4Gn	4d	8bL	8BL
.	.	.	16aL	16AL
.	.	.	[16eJJ	[16EJJ
4E-X	4A	4c#	16eLL]	16ELL]
.	.	.	16eJ	16EJ
.	.	.	8aJ	8AJ
=55	=55	=55	=55	=55
8D'L	8A'L	8f#'L	4r	4r
8D'J	8A'J	8f#'J	.	.
16r	16r	16r	8ff#L	8f#L
8.D	8.A	8.f#	.	.
.	.	.	8eeJ	8eJ
4C#'	4G#'	4e#X'	4r	4r
4r	4r	4r	8gg#L	8g#L
.	.	.	8aaJ	8aJ
=56	=56	=56	=56	=56
8FF#'L	8A'L	8en'L	8r	8r
8FF#'J	8A'J	8e'J	16r	16r
.	.	.	16cc#	16c#
16r	16r	16r	16bbLL	16bLL
8.FF#	8.A	8.e	16aaJ	16aJ
.	.	.	8aaJ	8aJ
4EE	4A	8dL	8r	8r
.	.	8c#	16eeLL	16eLL
.	.	.	16eeJJ	16eJJ
4AA	4A	8d	8ff#'L	8f#'L
.	.	8c#J	8eeJ	8eJ
=57	=57	=57	=57	=57
8D'L	8c#'L	8f#'L	4r	4r
8D'J	8c#'J	8f#'J	.	.
16r	16r	16r	8ff#'L	8f#'L
8.D	8.c#	8.f#	.	.
.	.	.	8eeJ	8eJ
4C#'	4B'	4e'	16r	16r
.	.	.	16aLL	16ALL
.	.	.	16a	16A
.	.	.	16aJJ	16AJJ
4r	4r	4r	16ddLL	16dLL
.	.	.	16dd	16d
.	.	.	16cc#	16c#
.	.	.	16cc#JJ	16c#JJ
=58	=58	=58	=58	=58
*M2/4	*M2/4	*M2/4	*M2/4	*M2/4
4BB	4A	4d	8.cc#L	8.c#L
.	.	.	[16ddJk	[16dJk
4E	4B	4d	8ddL]	8dL]
.	.	.	16cc#L	16c#L
.	.	.	16cc#JJ	16c#JJ
=59	=59	=59	=59	=59
*M4/4	*M4/4	*M4/4	*M4/4	*M4/4
1AA	1E	1c#	4cc#	4c#
.	.	.	8r	8r
.	.	.	8a	8A
.	.	.	8aL	8AL
.	.	.	8g#	8G#
.	.	.	8a	8A
.	.	.	[8bbJ	[8bJ
=60	=60	=60	=60	=60
4DD	8c#L	8f#L	8bbL]	8bL]
.	16c#L	16f#L	16aaL	16aL
.	16c#JJ	16f#JJ	16ff#JJ	16f#JJ
8r	8.c#'L	8.f#'L	8.aa'L	8.a'L
8DD	.	.	.	.
.	16c#Jk	16f#Jk	16ff#Jk	16f#Jk
8r	8c#L	8f#L	8ff#L	8f#L
8DD	8c#	8f#	8ee	8e
16r	8c#	8f#	8ff#	8f#
8.DD	.	.	.	.
.	[8eJ	[8g#J	[8aaJ	[8aJ
=61	=61	=61	=61	=61
4EE	8eL]	8g#L]	8aaL]	8aL]
.	16eL	16g#L	16gg#L	16g#L
.	16eJJ	16g#JJ	16ff#JJ	16f#JJ
8r	2B	2g#	2ee	2e
8EE	.	.	.	.
8r	.	.	.	.
8EE	.	.	.	.
16r	8r	8r	8r	8r
8.EE	.	.	.	.
.	8G#	8B	16cc#LL	16c#LL
.	.	.	16ddJJ	16dJJ
=62	=62	=62	=62	=62
4C#	8.G#'L	8.c#'L	8.eeL	8.eL
.	[16G#Jk	[16c#Jk	[16eeJk	[16eJk
8r	8G#L]	8c#L]	8eeL]	8eL]
8C#	16G#L	16c#L	16eeL	16eL
.	[16G#JJ	[16dJJ	16eeJJ	16eJJ
8r	8G#L]	8dL]	8ee#XL	8eL
8EE#X	16G#L	16c#L	16ffnL	16f#L
.	[16G#JJ	[16c#JJ	[16ff#XJJ	[16f#JJ
16r	8G#L]	8c#L]	8ff#L]	8f#L]
8.EE#	.	.	.	.
.	16BL	16eL	16gg#L	16g#L
.	[16BJJ	[16eJJ	[16gg#JJ	[16g#JJ
=63	=63	=63	=63	=63
4FF#	8BL]	8eL]	8gg#L]	8g#L]
.	16c#L	16eL	16aaL	16aL
.	[16c#JJ	[16eJJ	[16aaJJ	[16aJJ
8r	4c#]	4e]	8.aa]	8.a]
8FF#	.	.	.	.
.	.	.	8r	8r
8r	8r	8r	.	.
.	.	.	16r	16r
8FF#	8c#	8f#	8ee	8e
16r	16r	16r	8eeL	8eL
8.FF#'	8.c#	8.f#	.	.
.	.	.	8eeJ	8eJ
=64	=64	=64	=64	=64
4BB	4d	4f#	8eeL	8eL
.	.	.	16ddL	16dL
.	.	.	[16cc#JJ	[16c#JJ
8r	8r	8r	8cc#L]	8c#L]
8BB	8d	8f#	16ddL	16dL
.	.	.	[16aaJJ	[16aJJ
8r	8r	8r	16aa]	16a]
.	.	.	16r	16r
8BB	8d	8f#	8dd	8d
16r	16r	16r	8ddL	8dL
8.BB	8.d	8.f#	.	.
.	.	.	8eeJ	8eJ
=65	=65	=65	=65	=65
4C#	4B	4e	8ddL	8dL
.	.	.	16cc#L	16c#L
.	.	.	[16bJJ	[16BJJ
8r	8r	8r	8bL]	8BL]
8C#	8B	8e	8aJ	8AJ
8r	8r	8r	8cc#L	8c#L
8CC#	8B	8e	16ddL	16dL
.	.	.	[16eeJJ	[16eJJ
16r	16r	16r	8eeL]	8eL]
8.CC#	8.B	8.e	.	.
.	.	.	16aL	16AL
.	.	.	[16aaJJ	[16aJJ
=66	=66	=66	=66	=66
4DD	4cn	4fn	4aa]	4a]
8r	8r	8r	8r	8r
8DD	8c	8f	8gg#	8g#
8r	8r	8r	4aa	4a
8DD	8c	8f	.	.
16r	16r	16r	16r	16r
8.DD	8.c	8.f	16ff#LL	16f#LL
.	.	.	16ff#	16f#
.	.	.	16gg#JJ	16g#JJ
=67	=67	=67	=67	=67
4EE	4B	4e	8aaL	8aL
.	.	.	16aaL	16aL
.	.	.	[16aaJJ	[16aJJ
8r	8r	8r	16aa]	16a]
.	.	.	16r	16r
8EE	8f#	8cc#	8aa	8a
8r	8.f#L	8.cc#L	8.aaL	8.aL
8EE	.	.	.	.
.	[16eJk	[16bJk	[16gg#Jk	[16g#Jk
16r	8eL]	8bL]	8gg#L]	8g#L]
8.EE	.	.	.	.
.	16eL	16cc#L	16aaL	16aL
.	[16eJJ	[16cc#JJ	[16aaJJ	[16aJJ
=68	=68	=68	=68	=68
4AA	2.e]	2.cc#]	1aa]	1a]
8r	.	.	.	.
8AA	.	.	.	.
8r	.	.	.	.
8AA	.	.	.	.
16r	16ALL	16dLL	.	.
8.AA	16B	16e	.	.
.	16f#	16a	.	.
.	[16gnJJ	[16bJJ	.	.
=69	=69	=69	=69	=69
4AA	16gKL]	16bKL]	1r	1r
.	8a	8cc#	.	.
.	(32gnLL	(32bLL	.	.
.	32aJJJ)	32cc#JJJ)	.	.
8r	4g	4b	.	.
8AA	.	.	.	.
8r	8bL	8ddL	.	.
8AA	16aL	16cc#L	.	.
.	16gJJ	16bJJ	.	.
16r	16r	16r	.	.
8.AA	8.a	8.cc#	.	.
=70	=70	=70	=70	=70
2D	2f#	2a	16r	16r
.	.	.	16ff#LL	16f#LL
.	.	.	16ff#	16f#
.	.	.	16eeJJ	16eJJ
.	.	.	8ff#'L	8f#'L
.	.	.	8aaJ	8aJ
[4.E	2g#	2b	16r	16r
.	.	.	16ff#LL	16f#LL
.	.	.	16ff#	16f#
.	.	.	16eeJJ	16eJJ
.	.	.	8ff#'L	8f#'L
16ELL]	.	.	8aaJ	8aJ
16EJJ	.	.	.	.
=71	=71	=71	=71	=71
4E#X	2g#	2b	16r	16r
.	.	.	16ff#LL	16f#LL
.	.	.	16ff#	16f#
.	.	.	16eeJJ	16eJJ
8E#L	.	.	8ff#L	8f#L
16C#L	.	.	8ccc#J	8cc#J
16E#JJ	.	.	.	.
2F#	4a	4cc#	16bbLL	16bLL
.	.	.	16aaJ	16aJ
.	.	.	8ff#J	8f#J
.	4r	4r	8aaL	8aL
.	.	.	16ff#L	16f#L
.	.	.	16eeJJ	16eJJ
=72	=72	=72	=72	=72
8.BBL	8.AL	8.dL	8.ff#L	8.f#L
[16C#Jk	[16BJk	[16eJk	[16gg#Jk	[16g#Jk
8C#L]	8BL]	8eL]	8gg#L]	8g#L]
8DJ	8c#J	8f#J	8aaJ	8aJ
8r	2r	2r	16r	16r
.	.	.	16eeLL	16eLL
16r	.	.	16ff#	16f#
16DD	.	.	16eeJJ	16eJJ
4AA	.	.	16aaLL	16aLL
.	.	.	16ee	16e
.	.	.	16ff#	16f#
.	.	.	16eeJJ	16eJJ
=73	=73	=73	=73	=73
8.DDL	8.c#L	8.f#L	8.aaL	8.aL
[16EEJk	[16eJk	[16g#Jk	[16bbJk	[16bJk
8EEL]	8eL]	8g#L]	8bbL]	8bL]
8FF#J	8f#J	8aJ	8ccc#J	8cc#J
2r	2r	2r	16r	16r
.	.	.	16eeLL	16eLL
.	.	.	16ff#	16f#
.	.	.	16eeJJ	16eJJ
.	.	.	16aaLL	16aLL
.	.	.	16ee	16e
.	.	.	16ff#	16f#
.	.	.	16gg#JJ	16g#JJ
=74	=74	=74	=74	=74
8.DDL	8.cnL	8.fnL	8.aaL	8.aL
[16EEJk	[16dJk	[16gnJk	[16bbJk	[16bJk
8EEL]	8dL]	8gL]	8bbL]	8bL]
[8FFnJ	8fnJ	8aJ	8cccnJ	8cc#J
8FFL]	4r	4r	8r	8r
8CnJ	.	.	8dddL	8ddL
16FnLL	8r	8r	8ccc'	8cc#'
32GnL	.	.	.	.
32FJJ	.	.	.	.
[8EJ	[8e	[8a	[8cccJ	[8cc#J
=75	=75	=75	=75	=75
4.E]	8eL]	8aL]	16cccLL]	16cc#LL]
.	.	.	16bbJJ	16bJJ
.	8e'	8a'	4bb	4b
.	8e	8a	.	.
16DLL	8eJ	8aJ	16r	16r
16BBJJ	.	.	16aa	16a
32AALLL	8eL	8g#L	8aaL	8aL
32FF#JJ	.	.	.	.
[8.EEJ	.	.	.	.
.	8e	8g#	8gg#	8g#
4EE]	8e	8g#	8aa'	8a'
.	8eJ	8g#J	[8aaJ	[8aJ
=76	=76	=76	=76	=76
1D	1f#	2a	8aaL]	8aL]
.	.	.	16gg#L	16g#L
.	.	.	16ff#JJ	16f#JJ
.	.	.	8.ee'L	8.e'L
.	.	.	16eeJk	16eJk
.	.	4a	8ee'L	8e'L
.	.	.	8cc#	8c#
.	.	4cc#	8ee	8e
.	.	.	[8ff#J	[8f#J
=77	=77	=77	=77	=77
1C#	2A	1b	8ff#L]	8f#L]
.	.	.	16eeL	16eL
.	.	.	16ddJJ	16dJJ
.	.	.	2ee	2e
.	2G#	.	.	.
.	.	.	8r	8r
.	.	.	16cc#LL	16c#LL
.	.	.	16ddJJ	16dJJ
=78	=78	=78	=78	=78
2C#	2E#X	1B	8r	8r
.	.	.	16eeLL	16eLL
.	.	.	[16eeJJ	[16eJJ
.	.	.	8eeL]	8eL]
.	.	.	16eeL	16eL
.	.	.	[16ddJJ	[16dJJ
2E#X	2G#	.	8ddL]	8dL]
.	.	.	16cc#L	16c#L
.	.	.	[16bJJ	[16BJJ
.	.	.	8bL]	8BL]
.	.	.	16aL	16AL
.	.	.	[16g#JJ	[16G#JJ
=79	=79	=79	=79	=79
8.E#XL	8.G#L	8.BL	8g#L]	8G#L]
.	.	.	16aL	16AL
[16F#Jk	[16AJk	[16c#Jk	[16aJJ	[16AJJ
2.F#]	2.A]	2.c#]	8.a]	8.A]
.	.	.	8r	8r
.	.	.	16r	16r
.	.	.	8a	8A
.	.	.	8bL	8BL
.	.	.	8cc#J	8c#J
=80	=80	=80	=80	=80
1BB	1D	1a	8cc#L	8c#L
.	.	.	16cc#L	16c#L
.	.	.	[16cc#JJ	[16c#JJ
.	.	.	8cc#L]	8c#L]
.	.	.	16bL	16BL
.	.	.	[16eeJJ	[16eJJ
.	.	.	8eeL]	8eL]
.	.	.	16ddL	16dL
.	.	.	[16cc#JJ	[16c#JJ
.	.	.	8cc#L]	8c#L]
.	.	.	16bL	16BL
.	.	.	[16cc#JJ	[16c#JJ
=81	=81	=81	=81	=81
1E	1D	2.f#	8cc#L]	8c#L]
.	.	.	16bL	16BL
.	.	.	[16cc#JJ	[16c#JJ
.	.	.	16cc#]	16c#]
.	.	.	16r	16r
.	.	.	16cc#LL	16c#LL
.	.	.	16bJJ	16BJJ
.	.	.	8cc#L	8c#L
.	.	.	16cc#L	16c#L
.	.	.	16ddJJ	16dJJ
.	.	4d	8eeL	8eL
.	.	.	8bbJ	8bJ
=82	=82	=82	=82	=82
8.AAL	8.EL	8.BL	8.aaL	8.aL
[16AAJk	[16EJk	[16c#Jk	16cc#Jk	16c#Jk
2.AA]	2.E]	2.c#]	4cc#	4c#
.	.	.	4r	4r
.	.	.	8eeL	8eL
.	.	.	[8ccc#J	[8cc#J
=83	=83	=83	=83	=83
4r	4r	4r	8ccc#L]	8cc#L]
.	.	.	16bbL	16bL
.	.	.	[16bbJJ	[16bJJ
8r	8r	8r	16bb]	16b]
.	.	.	8r	8r
16r	16r	16r	.	.
16AA	16c#	16gn	16aa	16a
8AAL	8c#L	8gL	8aaL	8aL
8AA	8c#	8g	8gg#	8g#
8AA	8c#	8g	8aa'	8a'
8AAJ	8c#J	8gJ	[8bbJ	[8bJ
=84	=84	=84	=84	=84
4DD	8c#L	8f#L	8bbL]	8bL]
.	16c#L	16f#L	16aaL	16aL
.	16c#JJ	16f#JJ	16ff#JJ	16f#JJ
8r	8.c#'L	8.f#'L	8.aa'L	8.a'L
8DD	.	.	.	.
.	16c#Jk	16eJk	16ff#Jk	16f#Jk
8r	8c#L	8eL	8ff#L	8f#L
8DD	8c#	8e	8ee	8e
16r	8c#	8e	8ff#	8f#
8.DD	.	.	.	.
.	[8eJ	[8g#J	[8aaJ	[8aJ
=85	=85	=85	=85	=85
4EE	8eL]	8g#L]	8aaL]	8aL]
.	16eL	16g#L	16gg#L	16g#L
.	16eJJ	16g#JJ	16ff#JJ	16f#JJ
8r	2B	2g#	2ee	2e
8EE	.	.	.	.
8r	.	.	.	.
8EE	.	.	.	.
16r	8r	8r	8r	8r
8.EE	.	.	.	.
.	8B	8e	8ee	8e
=86	=86	=86	=86	=86
4CC#	8BL	8eL	8bbL	8bL
.	16BL	16eL	16ccc#L	16cc#L
.	[16BJJ	[16eJJ	[16eeJJ	[16eJJ
8r	8BL]	8eL]	8eeL]	8eL]
8CC#	16c#L	16eL	8eeJ	8eJ
.	16c#JJ	16eJJ	.	.
8r	8c#L	8e#XL	8bbL	8bL
8EE#X	16c#L	16e#L	16ccc#L	16cc#L
.	[16c#JJ	[16e#JJ	[16ee#XJJ	[16eJJ
16r	8c#L]	8e#L]	8ee#L]	8eL]
8.EE#	.	.	.	.
.	8e#X'J	8g#'J	8ee#J	8eJ
=87	=87	=87	=87	=87
4FF#	8c#L	8f#L	8bbL	8bL
.	16c#L	16f#L	16ccc#L	16cc#L
.	[16c#JJ	[16f#JJ	[16ccc#JJ	[16cc#JJ
8r	4c#]	4f#]	4ccc#]	4cc#]
8FF#	.	.	.	.
8r	8r	8r	8r	8r
8FF#	8c#	8f#	8eeL	8eL
16r	16r	16r	8ee	8e
8.FF#	8.c#	8.f#	.	.
.	.	.	8eeJ	8eJ
=88	=88	=88	=88	=88
4BB	4d	4f#	8eeL	8eL
.	.	.	16ddL	16dL
.	.	.	[16cc#JJ	[16c#JJ
8r	8r	8r	8cc#L]	8c#L]
8BB	8d	8f#	16ddL	16dL
.	.	.	[16aaJJ	[16aJJ
8r	8r	8r	16aa]	16a]
.	.	.	16r	16r
8BB	8d	8f#	8dd	8d
16r	16r	16r	8ddL	8dL
8.BB	8.d	8.f#	.	.
.	.	.	8eeJ	8eJ
=89	=89	=89	=89	=89
4C#	4B	4e	8r	8r
.	.	.	16cc#LL	16c#LL
.	.	.	[16bJJ	[16BJJ
8r	8r	8r	8bL]	8BL]
8C#	8B	8e	8aJ	8AJ
8r	8r	8r	8cc#L	8c#L
8CC#	8B	8e	16ddL	16dL
.	.	.	[16eeJJ	[16eJJ
16r	16r	16r	8eeL]	8eL]
8.CC#	8.B	8.e	.	.
.	.	.	16aL	16AL
.	.	.	[16aaJJ	[16aJJ
=90	=90	=90	=90	=90
4DD	4cn	4fn	4aa]	4a]
8r	8r	8r	8r	8r
8DD	8c	8f	8gg#	8g#
8r	8r	8r	4aa	4a
8DD	8c	8f	.	.
16r	16r	16r	16r	16r
8.DD	8.c	8.f	16ff#LL	16f#LL
.	.	.	16ff#	16f#
.	.	.	16gg#JJ	16g#JJ
=91	=91	=91	=91	=91
4EE	4B	4e	8aaL	8aL
.	.	.	16aaL	16aL
.	.	.	[16aaJJ	[16aJJ
8r	8r	8r	16aa]	16a]
.	.	.	16r	16r
8EE	8f#	8cc#	8aa	8a
8r	8.f#L	8.cc#L	8.aaL	8.aL
8EE	.	.	.	.
.	[16eJk	[16bJk	[16gg#Jk	[16g#Jk
16r	8eL]	8bL]	8gg#L]	8g#L]
8.EE	.	.	.	.
.	16f#L	16cc#L	16aaL	16aL
.	[16f#JJ	[16cc#JJ	[16aaJJ	[16aJJ
=92	=92	=92	=92	=92
1DD	2.f#_	2.cc#_	2aa_	2a_
.	.	.	2aa_	2a_
.	8f#L]	8cc#L]	.	.
.	16eL	16bL	.	.
.	16f#JJ	16cc#JJ	.	.
=93	=93	=93	=93	=93
1CC#	1e	1b	1aa]	1a]
=94	=94	=94	=94	=94
[2DD	1f#	1a	1cc#	1r
4DD_	.	.	.	.
8.DDL]	.	.	.	.
16EEJk	.	.	.	.
=95	=95	=95	=95	=95
1FF#	1c#	1a	4r	4r
.	.	.	8r	8r
.	.	.	8aa	8a
.	.	.	8aaL	8aL
.	.	.	8gg#	8g#
.	.	.	8aa	8a
.	.	.	[8bbJ	[8bJ
=96	=96	=96	=96	=96
1DD	2.c#	1f#	8bbL]	8bL]
.	.	.	16aaL	16aL
.	.	.	16ff#JJ	16f#JJ
.	.	.	8.aa'L	8.a'L
.	.	.	16ff#Jk	16f#Jk
.	.	.	8ff#L	8f#L
.	.	.	8ee	8e
.	8AL	.	8ff#	8f#
.	8BJ	.	[8aaJ	[8aJ
=97	=97	=97	=97	=97
1EE	2A	1e	8aaL]	8aL]
.	.	.	16gg#L	16g#L
.	.	.	16ff#JJ	16f#JJ
.	.	.	8.ee'L	8.e'L
.	.	.	16ddJk	16dJk
.	2B	.	4cc#	4c#
.	.	.	8.bL	8.BL
.	.	.	16aJk	16AJk
=98	=98	=98	=98	=98
1AA	1c#	1e	1a	1A
==	==	==	==	==
*-	*-	*-	*-	*-
